Simply-White-Circles/scalable/apps/skrooge-black.svg

<svg xmlns="http://www.w3.org/2000/svg" width="48" height="48" viewBox="0 0 12.7 12.7"><path d="M6.35.08A6.27 6.27 0 0 0 .08 6.35a6.27 6.27 0 0 0 6.27 6.27 6.27 6.27 0 0 0 6.27-6.27A6.27 6.27 0 0 0 6.35.08zm-.02.93a5.39 5.39 0 0 1 5.4 5.4 5.39 5.39 0 0 1-5.4 5.38A5.39 5.39 0 0 1 .94 6.4a5.39 5.39 0 0 1 5.4-5.39zm0 .53A4.86 4.86 0 0 0 1.47 6.4a4.86 4.86 0 0 0 4.86 4.86A4.86 4.86 0 0 0 11.2 6.4a4.86 4.86 0 0 0-4.86-4.86zm.31 1.02a3.79 3.79 0 0 1 2.95 1.42H8.21a2.84 2.84 0 0 0-1.57-.47 2.84 2.84 0 0 0-2.46 1.42h3.88l-.47.95H3.84c-.03.15-.04.31-.04.47h3.79l-.48.95H3.96a2.84 2.84 0 0 0 2.68 1.9c.56 0 1.1-.17 1.57-.48H9.6a3.79 3.79 0 0 1-2.96 1.42A3.8 3.8 0 0 1 2.98 7.3h-.6l.47-.95a3.8 3.8 0 0 1 .03-.47H1.9l.48-.95h.75a3.8 3.8 0 0 1 3.51-2.37z" fill="#e6e6e6"/></svg>

<?xml version="1.0" encoding="UTF-8" standalone="no"?>
<svg
   xmlns:dc="http://purl.org/dc/elements/1.1/"
   xmlns:cc="http://creativecommons.org/ns#"
   xmlns:rdf="http://www.w3.org/1999/02/22-rdf-syntax-ns#"
   xmlns:svg="http://www.w3.org/2000/svg"
   xmlns="http://www.w3.org/2000/svg"
   xmlns:sodipodi="http://sodipodi.sourceforge.net/DTD/sodipodi-0.dtd"
   xmlns:inkscape="http://www.inkscape.org/namespaces/inkscape"
   width="48"
   height="48"
   viewBox="0 0 12.7 12.7"
   version="1.1"
   id="svg4"
   sodipodi:docname="skrooge-black.svg"
   inkscape:version="0.92.4 (5da689c313, 2019-01-14)">
  <metadata
     id="metadata10">
    <rdf:RDF>
      <cc:Work
         rdf:about="">
        <dc:format>image/svg+xml</dc:format>
        <dc:type
           rdf:resource="http://purl.org/dc/dcmitype/StillImage" />
        <dc:title></dc:title>
      </cc:Work>
    </rdf:RDF>
  </metadata>
  <defs
     id="defs8" />
  <sodipodi:namedview
     pagecolor="#ffffff"
     bordercolor="#666666"
     borderopacity="1"
     objecttolerance="10"
     gridtolerance="10"
     guidetolerance="10"
     inkscape:pageopacity="0"
     inkscape:pageshadow="2"
     inkscape:window-width="1087"
     inkscape:window-height="480"
     id="namedview6"
     showgrid="false"
     inkscape:zoom="4.9166667"
     inkscape:cx="2.1355932"
     inkscape:cy="24"
     inkscape:window-x="0"
     inkscape:window-y="25"
     inkscape:window-maximized="0"
     inkscape:current-layer="svg4" />
  <path
     d="M 6.35,0.08 A 6.27,6.27 0 0 0 0.08,6.35 6.27,6.27 0 0 0 6.35,12.62 6.27,6.27 0 0 0 12.62,6.35 6.27,6.27 0 0 0 6.35,0.08 Z M 6.33,1.01 a 5.39,5.39 0 0 1 5.4,5.4 5.39,5.39 0 0 1 -5.4,5.38 A 5.39,5.39 0 0 1 0.94,6.4 5.39,5.39 0 0 1 6.34,1.01 Z m 0,0.53 A 4.86,4.86 0 0 0 1.47,6.4 4.86,4.86 0 0 0 6.33,11.26 4.86,4.86 0 0 0 11.2,6.4 4.86,4.86 0 0 0 6.34,1.54 Z M 6.64,2.56 A 3.79,3.79 0 0 1 9.59,3.98 H 8.21 A 2.84,2.84 0 0 0 6.64,3.51 2.84,2.84 0 0 0 4.18,4.93 H 8.06 L 7.59,5.88 H 3.84 C 3.81,6.03 3.8,6.19 3.8,6.35 H 7.59 L 7.11,7.3 H 3.96 A 2.84,2.84 0 0 0 6.64,9.2 C 7.2,9.2 7.74,9.03 8.21,8.72 H 9.6 A 3.79,3.79 0 0 1 6.64,10.14 3.8,3.8 0 0 1 2.98,7.3 H 2.38 L 2.85,6.35 A 3.8,3.8 0 0 1 2.88,5.88 H 1.9 L 2.38,4.93 H 3.13 A 3.8,3.8 0 0 1 6.64,2.56 Z"
     id="path2"
     inkscape:connector-curvature="0"
     style="fill:#e6e6e6" />
</svg>
